dist/svgs/crypto-icons/icons/part.svg

<?xml version="1.0" encoding="UTF-8" standalone="yes"?>
<svg xmlns="http://www.w3.org/2000/svg" xmlns:xlink="http://www.w3.org/1999/xlink" width="509.3333333333333px" height="510.66666666666663px" viewBox="0 0 382 383" version="1.1">
  <g id="surface1">
    <path style=" stroke:none;fill-rule:nonzero;fill:rgb(0%,0%,0%);fill-opacity:1;" d="M 179.988281 3.316406 C 192.304688 -2.058594 201.089844 9.332031 208.679688 16.941406 C 222.246094 28.476562 235.140625 40.800781 247.375 53.730469 C 254.386719 61.398438 251.546875 75.433594 242.007812 79.703125 C 234.679688 83.714844 225.722656 80.691406 220.097656 75.113281 C 205.34375 60.9375 191.230469 46.058594 175.898438 32.519531 C 166.398438 24.730469 168.335938 7.820312 179.988281 3.316406 Z M 314.351562 42.597656 C 322.699219 38.09375 336.058594 41.757812 338.378906 51.722656 C 341.914062 60.585938 336.234375 69.359375 330.003906 75.257812 C 316.351562 88.769531 303.078125 102.65625 289.800781 116.542969 C 284.964844 122.414062 276.441406 123.984375 269.601562 120.816406 C 259.71875 116.71875 257.050781 101.84375 264.5 94.316406 C 281.253906 77.234375 296.035156 58.085938 314.351562 42.597656 Z M 47.566406 45.359375 C 56.261719 40.101562 67.015625 43.585938 73.449219 50.734375 C 87.910156 65.378906 102.835938 79.527344 117.472656 93.9375 C 127.152344 102.917969 120.402344 121.921875 106.894531 121.980469 C 95.59375 123.722656 89.589844 112.507812 82.027344 106.375 C 68.753906 95.363281 56.609375 83.105469 44.582031 70.753906 C 37.769531 63.722656 39.800781 50.820312 47.566406 45.359375 Z M 58.785156 131.914062 C 73.363281 126.28125 87.59375 144.703125 78.492188 157.398438 C 67.738281 171.460938 53.738281 182.761719 42.003906 196.042969 C 35.074219 203.1875 28.613281 214.171875 17.078125 212.777344 C 3.570312 212.253906 -3.210938 193.425781 6.613281 184.304688 C 24.351562 167.277344 38.4375 145.746094 58.78125 131.917969 Z M 354.375 172.652344 C 364.40625 166.085938 379.535156 173.554688 379.855469 185.671875 C 381.332031 197.058594 370.058594 203.074219 363.855469 210.71875 C 352.929688 223.90625 340.933594 236.199219 328.554688 248.023438 C 319.511719 256.59375 302.613281 250.578125 300.992188 238.175781 C 298.875 225.359375 310.875 217.402344 318.441406 209.207031 C 330.960938 197.554688 341.539062 183.8125 354.375 172.652344 Z M 96.808594 262.753906 C 106.546875 256.914062 121.328125 263.859375 121.558594 275.714844 C 123.355469 287.160156 112.082031 293.234375 105.910156 300.875 C 95.011719 314.09375 82.867188 326.210938 70.609375 338.183594 C 62.636719 346.261719 45.65625 342.363281 43.394531 330.773438 C 39.539062 319.589844 49.015625 310.550781 56.234375 303.515625 C 70.234375 290.386719 82.40625 275.367188 96.808594 262.753906 Z M 269.894531 262.316406 C 275.285156 260.460938 282.125 260.3125 286.675781 264.207031 C 303.542969 280.273438 321.484375 295.210938 337.335938 312.351562 C 342.234375 317.320312 342.667969 325.660156 339.421875 331.644531 C 334.84375 342.394531 319.132812 342.65625 311.511719 335.042969 C 296.121094 320.488281 281.34375 305.203125 265.863281 290.703125 C 256.503906 283.414062 258.703125 266.53125 269.894531 262.316406 Z M 140.023438 303.402344 C 148.050781 299.042969 157.46875 303.171875 163.238281 309.300781 C 177.785156 323.769531 192.335938 338.242188 207.4375 352.128906 C 217.375 361.601562 210.652344 380.808594 196.652344 380.953125 C 185.351562 382.292969 179.46875 371.046875 171.875 364.886719 C 158.6875 353.933594 146.457031 341.871094 134.632812 329.464844 C 127.5 321.824219 130.398438 307.617188 140.023438 303.402344 Z M 114.21875 17.929688 C 114.21875 27.105469 106.800781 34.542969 97.648438 34.542969 C 88.496094 34.542969 81.078125 27.105469 81.078125 17.929688 C 81.078125 8.757812 88.496094 1.316406 97.648438 1.316406 C 106.800781 1.316406 114.21875 8.753906 114.21875 17.929688 Z M 162.519531 62.113281 C 162.519531 71.289062 155.097656 78.726562 145.949219 78.726562 C 136.796875 78.726562 129.375 71.289062 129.375 62.113281 C 129.375 52.941406 136.792969 45.5 145.949219 45.5 C 155.097656 45.5 162.519531 52.941406 162.519531 62.113281 Z M 33.140625 102.703125 C 33.140625 111.882812 25.722656 119.316406 16.570312 119.316406 C 7.421875 119.316406 0 111.882812 0 102.703125 C 0 93.53125 7.417969 86.09375 16.570312 86.09375 C 25.722656 86.09375 33.140625 93.53125 33.140625 102.703125 Z M 296.183594 16.613281 C 296.183594 25.785156 288.769531 33.222656 279.617188 33.222656 C 270.460938 33.222656 263.042969 25.785156 263.042969 16.613281 C 263.042969 7.4375 270.464844 0 279.617188 0 C 288.765625 0 296.183594 7.4375 296.183594 16.613281 Z M 382 98.539062 C 382 107.710938 374.582031 115.152344 365.429688 115.152344 C 356.28125 115.152344 348.859375 107.710938 348.859375 98.539062 C 348.859375 89.363281 356.277344 81.925781 365.429688 81.925781 C 374.582031 81.925781 382 89.367188 382 98.539062 Z M 336.714844 146.273438 C 336.714844 155.445312 329.292969 162.882812 320.144531 162.882812 C 310.992188 162.882812 303.574219 155.445312 303.574219 146.273438 C 303.574219 137.097656 310.992188 129.664062 320.144531 129.664062 C 329.292969 129.664062 336.714844 137.097656 336.714844 146.273438 Z M 381.925781 280.4375 C 381.925781 289.613281 374.503906 297.046875 365.351562 297.046875 C 356.199219 297.046875 348.78125 289.613281 348.78125 280.4375 C 348.78125 271.261719 356.199219 263.824219 365.351562 263.824219 C 374.503906 263.824219 381.925781 271.261719 381.925781 280.4375 Z M 252.695312 320.945312 C 252.695312 330.121094 245.273438 337.558594 236.125 337.558594 C 226.972656 337.558594 219.550781 330.121094 219.550781 320.945312 C 219.550781 311.773438 226.972656 304.332031 236.125 304.332031 C 245.273438 304.332031 252.695312 311.773438 252.695312 320.945312 Z M 300.367188 366.386719 C 300.367188 375.5625 292.945312 383 283.792969 383 C 274.644531 383 267.222656 375.5625 267.222656 366.386719 C 267.222656 357.214844 274.644531 349.773438 283.792969 349.773438 C 292.945312 349.777344 300.367188 357.214844 300.367188 366.386719 Z M 118.902344 366.386719 C 118.902344 375.5625 111.484375 382.996094 102.332031 382.996094 C 93.179688 382.996094 85.761719 375.5625 85.761719 366.386719 C 85.761719 357.210938 93.179688 349.773438 102.332031 349.773438 C 111.484375 349.773438 118.902344 357.210938 118.902344 366.386719 Z M 78.488281 236.273438 C 78.488281 245.449219 71.070312 252.882812 61.917969 252.882812 C 52.765625 252.882812 45.347656 245.449219 45.347656 236.273438 C 45.347656 227.097656 52.765625 219.660156 61.917969 219.660156 C 71.070312 219.660156 78.488281 227.097656 78.488281 236.273438 Z M 33.140625 284.554688 C 33.140625 293.730469 25.722656 301.167969 16.570312 301.167969 C 7.417969 301.167969 0 293.730469 0 284.554688 C 0 275.378906 7.417969 267.945312 16.570312 267.945312 C 25.722656 267.945312 33.140625 275.378906 33.140625 284.554688 Z M 33.140625 284.554688 "/>
  </g>
</svg>

<svg xmlns="http://www.w3.org/2000/svg" viewBox="0 0 382 383"><path d="M179.988 3.316c12.317-5.375 21.102 6.016 28.692 13.625 13.566 11.536 26.46 23.86 38.695 36.79 7.012 7.667 4.172 21.703-5.367 25.972-7.328 4.012-16.285.988-21.91-4.59-14.754-14.175-28.868-29.054-44.2-42.593-9.5-7.79-7.562-24.7 4.09-29.204zm134.364 39.282c8.347-4.504 21.707-.84 24.027 9.125 3.535 8.863-2.145 17.636-8.375 23.535-13.652 13.512-26.926 27.398-40.203 41.285-4.836 5.871-13.36 7.441-20.2 4.273-9.882-4.097-12.55-18.972-5.101-26.5 16.754-17.082 31.535-36.23 49.852-51.718zM47.566 45.359c8.696-5.257 19.45-1.773 25.883 5.375 14.461 14.645 29.387 28.793 44.024 43.203 9.68 8.981 2.93 27.985-10.578 28.043-11.301 1.743-17.305-9.472-24.868-15.605-13.273-11.012-25.418-23.27-37.445-35.621-6.812-7.031-4.781-19.934 2.984-25.395zm11.22 86.555c14.577-5.633 28.808 12.79 19.706 25.484-10.754 14.063-24.754 25.364-36.488 38.645-6.93 7.144-13.39 18.129-24.926 16.734-13.508-.523-20.289-19.351-10.465-28.472 17.739-17.028 31.825-38.559 52.168-52.387zm295.589 40.738c10.031-6.566 25.16.903 25.48 13.02 1.477 11.387-9.796 17.402-16 25.047-10.925 13.187-22.921 25.48-35.3 37.304-9.043 8.57-25.942 2.555-27.563-9.847-2.117-12.817 9.883-20.774 17.45-28.969 12.519-11.652 23.097-25.394 35.933-36.555zM96.809 262.754c9.738-5.84 24.52 1.105 24.75 12.96 1.796 11.446-9.477 17.52-15.649 25.161-10.898 13.219-23.043 25.336-35.3 37.309-7.973 8.078-24.954 4.18-27.215-7.41-3.856-11.184 5.62-20.223 12.84-27.258 14-13.13 26.171-28.149 40.574-40.762zm173.086-.438c5.39-1.855 12.23-2.003 16.78 1.891 16.868 16.066 34.81 31.004 50.66 48.145 4.9 4.968 5.333 13.308 2.087 19.293-4.578 10.75-20.29 11.011-27.91 3.398-15.39-14.555-30.168-29.84-45.649-44.34-9.36-7.289-7.16-24.172 4.032-28.387zm-129.872 41.086c8.028-4.359 17.446-.23 23.215 5.899 14.547 14.469 29.098 28.941 44.2 42.828 9.937 9.473 3.214 28.68-10.786 28.824-11.3 1.34-17.183-9.906-24.777-16.066-13.188-10.953-25.418-23.016-37.242-35.422-7.133-7.64-4.235-21.848 5.39-26.063zM114.22 17.93c0 9.175-7.418 16.613-16.57 16.613-9.153 0-16.57-7.438-16.57-16.613 0-9.172 7.417-16.614 16.57-16.614 9.152 0 16.57 7.438 16.57 16.614zm48.3 44.183c0 9.176-7.421 16.614-16.57 16.614-9.152 0-16.574-7.438-16.574-16.614 0-9.172 7.418-16.613 16.574-16.613 9.149 0 16.57 7.441 16.57 16.613zm-129.378 40.59c0 9.18-7.418 16.613-16.57 16.613C7.42 119.316 0 111.883 0 102.703c0-9.172 7.418-16.61 16.57-16.61 9.153 0 16.57 7.438 16.57 16.61zm263.043-86.09c0 9.172-7.414 16.61-16.567 16.61-9.156 0-16.574-7.438-16.574-16.61C263.043 7.438 270.465 0 279.617 0c9.149 0 16.567 7.438 16.567 16.613zM382 98.54c0 9.172-7.418 16.613-16.57 16.613-9.149 0-16.57-7.441-16.57-16.613 0-9.176 7.417-16.613 16.57-16.613 9.152 0 16.57 7.441 16.57 16.613zm-45.285 47.734c0 9.172-7.422 16.61-16.57 16.61-9.153 0-16.57-7.438-16.57-16.61 0-9.175 7.417-16.609 16.57-16.609 9.148 0 16.57 7.434 16.57 16.61zm45.21 134.165c0 9.175-7.421 16.609-16.573 16.609-9.153 0-16.57-7.434-16.57-16.61 0-9.175 7.417-16.613 16.57-16.613 9.152 0 16.574 7.438 16.574 16.613zm-129.23 40.507c0 9.176-7.422 16.614-16.57 16.614-9.152 0-16.574-7.438-16.574-16.614 0-9.172 7.422-16.613 16.574-16.613 9.148 0 16.57 7.441 16.57 16.613zm47.672 45.442c0 9.175-7.422 16.613-16.574 16.613-9.148 0-16.57-7.438-16.57-16.613 0-9.172 7.422-16.614 16.57-16.614 9.152.004 16.574 7.442 16.574 16.614zm-181.465 0c0 9.175-7.418 16.61-16.57 16.61-9.152 0-16.57-7.435-16.57-16.61 0-9.176 7.418-16.614 16.57-16.614 9.152 0 16.57 7.438 16.57 16.614zM78.488 236.273c0 9.176-7.418 16.61-16.57 16.61-9.152 0-16.57-7.434-16.57-16.61 0-9.175 7.418-16.613 16.57-16.613 9.152 0 16.57 7.438 16.57 16.613zm-45.347 48.282c0 9.175-7.418 16.613-16.57 16.613C7.417 301.168 0 293.73 0 284.555c0-9.176 7.418-16.61 16.57-16.61 9.153 0 16.57 7.434 16.57 16.61zm0 0"/></svg>
